!!! OTL: Literature118
!!! Chapter: 5
!!! Section: IV
!!! Page: 372
!!! Mode: 
!!! Encoder: DJB
**kern
*staff1
*I"Piano
=1-
*clefG2
*k[b-e-a-d-g-]
*D-:
*M4/4
[2dd-\
8dd-\L]
8cc\
8b-\
8b--\J
=2
[2a-/
8a-/L]
8gn/
8g-/
8f/J
=3
[2f/
8f/L]
8e-/
8dn/
8e-/J
=4
2g-/
4c/
4r
=5
[2dd-\
8dd-\L]
8cc\
8b-\
8b--\J
=6
[2a-/
8a-/L]
8gn/
8g-/
8f/J
=7
[2f/
8f/L]
8e-/
8dn/
8e-/J
=8
!!linebreak:original
2g-/
4c/
4r
=9
4c/
[4b-\
8b-/L]
8a-/
8gn/
8g-/J
=10
2g-/
4f/
4r
=11
4f/
[4ee-\
8ee-\L]
8dd-\
8cc\
8b-\J
=12
2b-\
4a-/
4r
=13
4a-/
[4gg-\
8gg-\L]
8ff\
8ee-\
8dd-\J
=14
4f/
[4ee-\
8ee-\L]
8dd-\
8cc\
8b-\J
=15
8a-/L
8g-/
8f/
8g-/J
4B-/
4f/
=16
!!linebreak:original
2.f/
4e-/
=17
2d-/
2r
==
*-
